src/img/icon-sitemap.svg

<svg width="16" height="16" viewBox="0 0 16 16" fill="none" xmlns="http://www.w3.org/2000/svg">
<path d="M14.8085 12.1055V10.1277C14.8085 8.48255 13.4749 7.14894 11.8298 7.14894H10.1277C9.42298 7.14894 8.85106 6.57702 8.85106 5.87234V3.89447C9.55319 3.57106 10.0426 2.86638 10.0426 2.04255C10.0426 0.914043 9.12851 2.02909e-08 8 2.02909e-08C6.87149 2.02909e-08 5.95745 0.914043 5.95745 2.04255C5.95745 2.86553 6.44766 3.57106 7.14894 3.89447V5.87234C7.14894 6.57702 6.57702 7.14894 5.87234 7.14894H4.17021C2.52511 7.14894 1.19149 8.48255 1.19149 10.1277V12.1055C0.489362 12.4289 2.02909e-08 13.1345 2.02909e-08 13.9574C2.02909e-08 15.086 0.914043 16 2.04255 16C3.17106 16 4.08511 15.0851 4.08511 13.9574C4.08511 13.1345 3.59489 12.4289 2.89362 12.1055V10.1277C2.89362 9.42298 3.46553 8.85106 4.17021 8.85106H5.87234C6.33106 8.85106 6.76085 8.73872 7.14894 8.55319V12.1055C6.44681 12.4289 5.95745 13.1345 5.95745 13.9574C5.95745 15.086 6.87149 16 8 16C9.12851 16 10.0426 15.0851 10.0426 13.9574C10.0426 13.1345 9.55234 12.4289 8.85106 12.1055V8.55319C9.23915 8.73872 9.66894 8.85106 10.1277 8.85106H11.8298C12.5345 8.85106 13.1064 9.42298 13.1064 10.1277V12.1055C12.4043 12.4289 11.9149 13.1336 11.9149 13.9574C11.9149 15.086 12.8289 16 13.9574 16C15.086 16 16 15.0851 16 13.9574C16 13.1345 15.5106 12.4289 14.8085 12.1055ZM8 0.86383C8.65021 0.86383 9.17787 1.39064 9.17787 2.04255C9.17787 2.69277 8.65021 3.22128 8 3.22128C7.34894 3.22128 6.82213 2.69277 6.82213 2.04255C6.82213 1.39064 7.34894 0.86383 8 0.86383ZM2.04255 15.1362C1.39064 15.1362 0.86383 14.6077 0.86383 13.9574C0.86383 13.3055 1.39064 12.7787 2.04255 12.7787C2.69277 12.7787 3.22043 13.3055 3.22043 13.9574C3.22043 14.6077 2.69277 15.1362 2.04255 15.1362ZM8 15.1362C7.34808 15.1362 6.82128 14.6077 6.82128 13.9574C6.82128 13.3055 7.34808 12.7787 8 12.7787C8.65021 12.7787 9.17787 13.3055 9.17787 13.9574C9.17787 14.6077 8.65021 15.1362 8 15.1362ZM13.9574 15.1362C13.3055 15.1362 12.7787 14.6077 12.7787 13.9574C12.7787 13.3055 13.3055 12.7787 13.9574 12.7787C14.6077 12.7787 15.1353 13.3055 15.1353 13.9574C15.1353 14.6077 14.6077 15.1362 13.9574 15.1362Z" fill="#DB063D"/>
</svg>

<svg width="16" height="16" viewBox="0 0 16 16" xmlns="http://www.w3.org/2000/svg" fill="none"><path d="M14.809 12.105v-1.978c0-1.645-1.334-2.979-2.979-2.979h-1.702c-.705 0-1.277-.572-1.277-1.277v-1.978c.702-.323 1.192-1.028 1.192-1.852 0-1.129-.914-2.043-2.043-2.043s-2.043.914-2.043 2.043c0 .823.49 1.529 1.191 1.852v1.978c0 .705-.572 1.277-1.277 1.277h-1.702c-1.645 0-2.979 1.334-2.979 2.979v1.978c-.702.323-1.191 1.029-1.191 1.852 0 1.129.914 2.043 2.043 2.043s2.043-.915 2.043-2.043c0-.823-.49-1.528-1.191-1.852v-1.978c0-.705.572-1.277 1.277-1.277h1.702c.459 0 .889-.112 1.277-.298v3.552c-.702.323-1.191 1.029-1.191 1.852 0 1.129.914 2.043 2.043 2.043s2.043-.915 2.043-2.043c0-.823-.49-1.528-1.192-1.852v-3.552c.388.186.818.298 1.277.298h1.702c.705 0 1.277.572 1.277 1.277v1.978c-.702.323-1.192 1.028-1.192 1.852 0 1.129.914 2.043 2.043 2.043s2.043-.915 2.043-2.043c0-.823-.489-1.528-1.191-1.852zm-6.809-11.242c.65 0 1.178.527 1.178 1.179 0 .65-.528 1.179-1.178 1.179-.651 0-1.178-.529-1.178-1.179 0-.652.527-1.179 1.178-1.179zm-5.957 14.272c-.652 0-1.179-.529-1.179-1.179 0-.652.527-1.179 1.179-1.179.65 0 1.178.527 1.178 1.179 0 .65-.528 1.179-1.178 1.179zm5.957 0c-.652 0-1.179-.529-1.179-1.179 0-.652.527-1.179 1.179-1.179.65 0 1.178.527 1.178 1.179 0 .65-.528 1.179-1.178 1.179zm5.957 0c-.652 0-1.179-.529-1.179-1.179 0-.652.527-1.179 1.179-1.179.65 0 1.178.527 1.178 1.179 0 .65-.528 1.179-1.178 1.179z" fill="#DB063D"/></svg>
